!!!OTL: Zhua bing diao
!!!ARE: Asia, China,ÿYunnan, Yaoan
!! II, 49
!!!SCT: C1483
!!!YEM: Copyright 1995, estate of Helmut Schaffrath.
**kern
*ICvox
*Ivox
!! Mixed meters:  2/4; 3/4
*M2/4
*k[]
*C:
{4a
8dd
8gg
=1
8ee
8dd
8dd
8a
=2
4a
4dd
=3
8ee
8dd
8a
8cc
=4
8a
8g
8f
8a
=5
*M3/4
8g
8f
4d
4r}
=6
*M2/4
{8dd
8dd
8a
8cc
=7
8dd
8cc
8a
8g
=8
8g
8a
8g
8f
=9
*M3/4
8d
4d
8c
4d}
=10
*M2/4
{8dd
8dd
8a
8cc
=11
8a
8g
8f
8a
=12
8g
8f
4d
=13
4g
8cc
8dd
=14
8dd
8cc
8a
8g
=15
8g
8a
8g
8f
=16
8d
4d
8c
4d}
==
!!!AGN: Wuge, Lianhualao
!!!AMT: irregular
!!!AIN: vox
!!!EED: Helmut Schaffrath
!!!EEV: 1.0
*-
